svgs/solid/tally-4.svg

<svg xmlns="http://www.w3.org/2000/svg" viewBox="0 0 448 512"><!-- Font Awesome Pro 6.0.0-alpha2 by @fontawesome - https://fontawesome.com License - https://fontawesome.com/license (Commercial License) --><path d="M32 32H32C14.327 32 0 46.327 0 64V448C0 465.673 14.327 480 32 480H32C49.673 480 64 465.673 64 448V64C64 46.327 49.673 32 32 32ZM160 32H160C142.327 32 128 46.327 128 64V448C128 465.673 142.327 480 160 480H160C177.673 480 192 465.673 192 448V64C192 46.327 177.673 32 160 32ZM416 32H416C398.327 32 384 46.327 384 64V448C384 465.673 398.327 480 416 480H416C433.673 480 448 465.673 448 448V64C448 46.327 433.673 32 416 32ZM288 32H288C270.327 32 256 46.327 256 64V448C256 465.673 270.327 480 288 480H288C305.673 480 320 465.673 320 448V64C320 46.327 305.673 32 288 32Z"/></svg>

<svg xmlns="http://www.w3.org/2000/svg" viewBox="0 0 448 512"><!--! Font Awesome Pro 6.3.0 by @fontawesome - https://fontawesome.com License - https://fontawesome.com/license (Commercial License) Copyright 2023 Fonticons, Inc. --><path d="M64 64c0-17.7-14.3-32-32-32S0 46.3 0 64V448c0 17.7 14.3 32 32 32s32-14.3 32-32V64zm128 0c0-17.7-14.3-32-32-32s-32 14.3-32 32V448c0 17.7 14.3 32 32 32s32-14.3 32-32V64zm96-32c-17.7 0-32 14.3-32 32V448c0 17.7 14.3 32 32 32s32-14.3 32-32V64c0-17.7-14.3-32-32-32zM448 64c0-17.7-14.3-32-32-32s-32 14.3-32 32V448c0 17.7 14.3 32 32 32s32-14.3 32-32V64z"/></svg>
